X:1
T:Title
%%score { 1 | 2 }
L:1/8
M:6/8
K:G
V:1 treble nm="Grand Piano"
V:2 bass 
V:1
 z3 z2[Q:1/4=100] d | B>BB c2 B | B A2- A2 [Fd] | [FA]>[GB][Ac] [GB]2 [FA] |[M:5/8] B- B3 z | %5
[M:1/8] d |[M:3/4] B>B B c2 B | BA- A3 A | [Fd]>[Fd] [Fd] e2 [E^c] |[M:5/8] [Fd]-[Fd]- [Fd]3 | %10
[M:1/8] D |[M:3/4] c>c [Ec] [Fc]2 [Fc] | [Gc]3 [GB]2 [FA] | G>A B [^CB]2 [CA] |[M:5/8] A-A- A3 | %15
[M:1/8] D |[M:3/4] [DG]>[DG] A B2 c |[M:7/8] d3 [Ge]3 [EAc] | %18
[M:3/4] [DGB]>[DGB] [DGB] [CFA]2 [CDA] |[M:5/8] [B,DG]-[B,DG]- [B,DG]3 |] %20
V:2
 z3 z2 [D,D] | [G,D]>[G,D][G,D] [G,E]2 [G,D] | [D,G,D] [D,F,D]2- [D,F,D]2 [D,A,] | %3
 [D,D]>[D,D][D,D] [D,D]2 [D,D] |[M:5/8][K:treble] [G,DG]- [G,DG]3 z |[M:1/8][K:bass] [D,D] | %6
[M:3/4] [G,D]>[G,D] [G,D] [G,E]2 [G,D] | [D,G,D][D,F,D]- [D,F,D]3 [D,F,D] | %8
 [D,A,]>[D,A,] [D,A,] [A,G]2 [A,,A,] |[M:5/8] [D,A,]-[D,A,]- [D,A,]3 |[M:1/8] [D,F,] | %11
[M:3/4] [D,F,D]>[D,F,D] [D,G,] [D,A,]2 [D,D] | [G,E]3 [G,D]2 [D,C] | %13
 [E,B,E]>[E,A,E] [E,G,E] [A,,G,]2 [A,,G,] |[M:5/8] [D,F,D]-[D,F,D]- [D,F,D]3 |[M:1/8] [C,F,] | %16
[M:3/4] [B,,G,]>[B,,G,] [D,F,D][K:treble] [G,D]2 [G,A,D] |[M:7/8] [G,B,G]3[K:bass] [C,C]3 C, | %18
[M:3/4] D,>D, D, D,2 D, |[M:5/8] G,,-G,,- G,,3 |] %20

